packages/ffe-icons/icons/open/400/sm/google_tv_remote.svg

<svg xmlns="http://www.w3.org/2000/svg" height="20" viewBox="0 -960 960 960" width="20"><path d="M480-684q-25 0-42.5-17.5T420-744q0-25 17.5-42.5T480-804q25 0 42.5 17.5T540-744q0 25-17.5 42.5T480-684Zm-.226 636Q400-48 344-104.16T288-240v-480q0-79.68 56.226-135.84t136-56.16Q560-912 616-855.84T672-720v480q0 79.68-56.226 135.84t-136 56.16Zm.001-600Q520-648 548-675.775q28-27.774 28-68Q576-784 548.225-812q-27.774-28-68-28Q440-840 412-812.225q-28 27.774-28 68Q384-704 411.775-676q27.774 28 68 28ZM480-120q50 0 85-35t35-85v-387q-24 24-55 37.5T480-576q-34 0-65-13.5T360-627v387q0 50 35 85t85 35Zm-60.211-180Q435-300 445.5-310.289q10.5-10.29 10.5-25.5Q456-351 445.711-361.5q-10.29-10.5-25.5-10.5Q405-372 394.5-361.711q-10.5 10.29-10.5 25.5Q384-321 394.289-310.5q10.29 10.5 25.5 10.5Zm0-108Q435-408 445.5-418.289q10.5-10.29 10.5-25.5Q456-459 445.711-469.5q-10.29-10.5-25.5-10.5Q405-480 394.5-469.711q-10.5 10.29-10.5 25.5Q384-429 394.289-418.5q10.29 10.5 25.5 10.5Zm120 0Q555-408 565.5-418.289q10.5-10.29 10.5-25.5Q576-459 565.711-469.5q-10.29-10.5-25.5-10.5Q525-480 514.5-469.711q-10.5 10.29-10.5 25.5Q504-429 514.289-418.5q10.29 10.5 25.5 10.5Zm0 108Q555-300 565.5-310.289q10.5-10.29 10.5-25.5Q576-351 565.711-361.5q-10.29-10.5-25.5-10.5Q525-372 514.5-361.711q-10.5 10.29-10.5 25.5Q504-321 514.289-310.5q10.29 10.5 25.5 10.5Zm-120 108Q435-192 445.5-202.289q10.5-10.29 10.5-25.5Q456-243 445.711-253.5q-10.29-10.5-25.5-10.5Q405-264 394.5-253.711q-10.5 10.29-10.5 25.5Q384-213 394.289-202.5q10.29 10.5 25.5 10.5Zm120 0Q555-192 565.5-202.289q10.5-10.29 10.5-25.5Q576-243 565.711-253.5q-10.29-10.5-25.5-10.5Q525-264 514.5-253.711q-10.5 10.29-10.5 25.5Q504-213 514.289-202.5q10.29 10.5 25.5 10.5ZM480-576Z"/></svg>

<svg xmlns="http://www.w3.org/2000/svg" height="20" viewBox="0 -960 960 960" width="20"><path d="M480-684q-25 0-42.5-17.5T420-744q0-25 17.5-42.5T480-804q25 0 42.5 17.5T540-744q0 25-17.5 42.5T480-684Zm-.23 636Q400-48 344-104.16 288-160.32 288-240v-480q0-79.68 56.23-135.84 56.22-56.16 136-56.16Q560-912 616-855.84q56 56.16 56 135.84v480q0 79.68-56.23 135.84Q559.55-48 479.77-48Zm0-600Q520-648 548-675.77q28-27.78 28-68Q576-784 548.23-812q-27.78-28-68-28Q440-840 412-812.23q-28 27.78-28 68Q384-704 411.77-676q27.78 28 68 28Zm.23 528q50 0 85-35t35-85v-387q-24 24-55 37.5T480-576q-34 0-65-13.5T360-627v387q0 50 35 85t85 35Zm-60.21-180q15.21 0 25.71-10.29t10.5-25.5q0-15.21-10.29-25.71t-25.5-10.5q-15.21 0-25.71 10.29t-10.5 25.5q0 15.21 10.29 25.71t25.5 10.5Zm0-108q15.21 0 25.71-10.29t10.5-25.5q0-15.21-10.29-25.71t-25.5-10.5q-15.21 0-25.71 10.29t-10.5 25.5q0 15.21 10.29 25.71t25.5 10.5Zm120 0q15.21 0 25.71-10.29t10.5-25.5q0-15.21-10.29-25.71t-25.5-10.5q-15.21 0-25.71 10.29t-10.5 25.5q0 15.21 10.29 25.71t25.5 10.5Zm0 108q15.21 0 25.71-10.29t10.5-25.5q0-15.21-10.29-25.71t-25.5-10.5q-15.21 0-25.71 10.29t-10.5 25.5q0 15.21 10.29 25.71t25.5 10.5Zm-120 108q15.21 0 25.71-10.29t10.5-25.5q0-15.21-10.29-25.71t-25.5-10.5q-15.21 0-25.71 10.29t-10.5 25.5q0 15.21 10.29 25.71t25.5 10.5Zm120 0q15.21 0 25.71-10.29t10.5-25.5q0-15.21-10.29-25.71t-25.5-10.5q-15.21 0-25.71 10.29t-10.5 25.5q0 15.21 10.29 25.71t25.5 10.5ZM480-576Z"/></svg>
